X: 1
M: 4/4
Q: 1/4=200
%%score (Contrapunctus) (CantusFirmus)
L: 1/8
V:CantusFirmus name="Cantus Firmus"
V:Contrapunctus name=Contrapunctus
K: DDor
[V:CantusFirmus] D8 |B,8 |C8 |B,8 |C8 |D8 |B,8 |C8 |E8 |D8 |E8 |D8 |
[V:Contrapunctus] d4 A2 B1A1 |B4 G4 |G2 A2 G4 |G4 B4 |A4 G4 |F8 |G4 B4 |A8 |G4 c2 B2 |d8 |^c8 |d8 |
% Command-line options:
% --df                 --random-seed=23     --tune-length=12
% --verbose            --verbose
%
% Eval: 1
% 
%#    0: [1],[2],[1],[2],[3],[1],[2],[4],[3],[2],[7],[0],[0],[0],[1],[4]
%#   16: [0],[0],[5],[4],[2],[5],[0],[4],[4],[2],[3],[0],[1],[5],[0],[1]
%#   32: [3],[1],[4],[0],[2],[3],[0],[0],[0],[0],[2],[3],[1],[4],[1],[2]
%#   48: [5],[0],[0],[0],[0],[2],[4],[0],[0],[0],[2],[3],[0],[0],[0],[0]
%#   64: [3],[2],[0],[0],[1],[1],[2],[0],[0],[3],[0],[2],[3],[0],[0],[0]
%#   80: [2],[5],[0],[0],[0],[0],[3],[4],[0],[0],[0],[0],[0],[0],[0],[0]
%#   96: [0],[2],[3],[0],[0],[0],[1],[6],[0],[1],[5],[0],[3],[7],[0],[0]
%#  112: [0],[0],[0],[0],[0],[0],[0]
